X: 132
T:Mazltov
M:4/4
L:1/8
F:http://blackrosetheband.googlepages.com/ABCTUNES.ABC May 2009
C:Traditional
S:The Chicago Klezmer Ensemble
O:c
K:Gm
|:d2 =e^f|"Gm"g2 B2 B3 B|"D"AD^FG "Gm"G4|GABc "Cm"dece|"D"d6 cB|
"Gm"dgbg "F"cgac|"Bb"Bdfd "Cm"c6 BA|"Gm"Bdfd "D"cB{B}AG|"Gm"G6:|
(d2|d)"Gm"g (3bag (g4 |g)b (3d'c'b (b4|b)d' (3f'=e'd' (3d'c'b d'2|"D"(3d'c'b (3bag "Gm"(d4|
d)g (3bag (g4|g)b  "Bbm"(3_d'c'b (b4|b) d' "Gm"(3f'=e'd' (3d'c'b d'2|"D"(3d'c'b (3bag "Gm"g2 (D2|
D)G (3BAG (G4 |G)B (3dcB (B4|B)d (3f=ed (3dcB d2|"D"(3dcB (3BAG "Gm"(D4|
D)G (3BAG (G4|G)B  "Bbm"(3_dcB (B4|B) d "Gm"(3f=ed (3dcB d2|"D"(3dcB (3BAG "Gm"GF Bd|
|:"Bb"(f4 f)e de|d4 c2 B2|f2 g2 {b}_agf=e |f6 (ff')|
f'e'd'c' e'd'c'b|d'c'ba c'bag|bagf agfe|gfed fedc|
"F"c2 d2 e2 =e2|f2 g2 c2 _e2|"Bb"d6 cB|B c'd' B"F"A =bc' A|
"Gm"G abg "F"fedc|(BA) Ag gf Ac|"Bb"(cB) B3 FBd:|
c2|:{e}"Bbm"_dcdc dfed|"C"(_dc) c4 BA|"Bbm"BABA BcF_A|"Gm"G4 g4|
"Bb"ba_ag ^ff=ee|d_dc=B _B=dfd|"Cm"c6 BA|"Gm"Bd fd "D"cB AG|"Gm"G6 c2:|

